markets/CHF.svg

<svg width="42" height="42" viewBox="0 0 42 42" fill="none" xmlns="http://www.w3.org/2000/svg">
<circle cx="21" cy="21" r="21" fill="#06061B"/>
<path d="M15.6277 30.8152V27.3091H13.6282V24.9261H15.6277V11.2578H27.3786V14.6543H19.709V19.1465H26.8856V22.543H19.709V24.9261H23.9273V27.3091H19.709V30.8152H15.6277Z" fill="white"/>
</svg>

<svg xmlns="http://www.w3.org/2000/svg" width="42" height="42" fill="none"><circle cx="21" cy="21" r="21" fill="#06061B"/><path fill="#fff" d="M15.628 30.815V27.31h-2v-2.383h2V11.258h11.75v3.396H19.71v4.492h7.177v3.397h-7.177v2.383h4.218v2.383H19.71v3.506h-4.081Z"/></svg>
